remix/Weather/sun-cloudy-line.svg

<svg viewBox="0 0 24 24" fill="currentColor" xmlns="http://www.w3.org/2000/svg"><path d="M9.98392 5.05991C11.1323 3.22236 13.1734 2 15.5 2C19.0899 2 22 4.91015 22 8.5C22 9.58031 21.7365 10.5991 21.2701 11.4955C22.3351 12.4985 23 13.9216 23 15.5C23 18.5376 20.5376 21 17.5 21H9C4.58172 21 1 17.4183 1 13C1 8.58172 4.58172 5 9 5C9.33312 5 9.66149 5.02036 9.98392 5.05991ZM12.0554 5.60419C14.0675 6.43637 15.6662 8.06578 16.4576 10.0986C16.7951 10.0339 17.1436 10 17.5 10C18.2351 10 18.9366 10.1442 19.5776 10.4059C19.8486 9.82719 20 9.18128 20 8.5C20 6.01472 17.9853 4 15.5 4C14.1177 4 12.8809 4.6233 12.0554 5.60419ZM17.5 19C19.433 19 21 17.433 21 15.5C21 13.567 19.433 12 17.5 12C16.5205 12 15.6351 12.4023 14.9998 13.0507C14.9999 13.0338 15 13.0169 15 13C15 9.68629 12.3137 7 9 7C5.68629 7 3 9.68629 3 13C3 16.3137 5.68629 19 9 19H17.5Z"/></svg>

<svg viewBox="0 0 24 24" xmlns="http://www.w3.org/2000/svg"><path fill="none" d="M0 0h24v24H0Z"/><path d="M9.98 5.06L9.97 5.05c1.66-3.18 5.59-4.41 8.77-2.74 3.17 1.66 4.4 5.59 2.73 8.77 -.08.13-.15.26-.23.39v-.001c2.21 2.08 2.31 5.56.23 7.77 -1.04 1.1-2.49 1.72-4.01 1.72l-8.5-.01v0c-4.42-.01-8-3.59-8-8.01s3.58-8 8-8c.32 0 .64.02.97.05Zm2.07.54v0c2.01.83 3.6 2.45 4.4 4.49v0c1.04-.21 2.13-.1 3.12.3v0c1.05-2.26.08-4.93-2.17-5.99 -1.85-.87-4.05-.39-5.36 1.18Zm5.445 13.396h0c1.93-.01 3.49-1.57 3.49-3.51 -.01-1.94-1.57-3.5-3.51-3.5 -.95 0-1.85.37-2.5 1.04v-.05 0c0-3.32-2.69-6-6-6 -3.32 0-6 2.68-6 6 0 3.31 2.68 6 6 6h8.5Z"/></svg>
